X:1
T:Doodle Dandy
M:4/4
L:1/4
K:C
 E E E C| E G G E| E E E C| E G G E| E/2E/2 E E/2E/2 D| C C c d| e c A c|\
 G E E z| C c G/2G/2 C| E/2E/2 E E3/2 D/2| C c G C| D D D3/2 E/2| E/2E/2 E E/2E/2 D/2D/2|\
 C C c d/2d/2| e c A c| G E E z|
